X:165
T:Skirl of the Pipes* (march)
B:NFID.088b (untitled)
165skirl
S:JD
L:1/8
M:C
R:march
Q:280
K:A=G
ag|e2A2 ABcd|e2ec d2ef|g2B2 d3e|dcBA G2g2|
e2A2 ABcd|e2ec d2fa|g2B2 edBG|A4A2:|
%B
ag|e2d2e2 fg|a2af g2ge|d2FG G2Bc|dcBA G2g2|
e2d2e2 fg|a2af g2eg|d2B2 edBG|A4 A2ag|
%C
e2d2e2 fg|a2af g2ge|d2G2G2 Bc|dcBA G2g2|
e2A2 ABcd|e2ec d2fa|g2B2 edBG|A4HA2|]


%%%

